packages/icons/svg/32/Index.svg

<svg width="32" height="32" viewBox="0 0 32 32" fill="none" xmlns="http://www.w3.org/2000/svg">
<path fill-rule="evenodd" clip-rule="evenodd" d="M7.5 11.5C8.32843 11.5 9 10.8284 9 10C9 9.17157 8.32843 8.5 7.5 8.5C6.67157 8.5 6 9.17157 6 10C6 10.8284 6.67157 11.5 7.5 11.5ZM11 10C11 9.44772 11.4477 9 12 9H25C25.5523 9 26 9.44772 26 10C26 10.5523 25.5523 11 25 11H12C11.4477 11 11 10.5523 11 10ZM12 15C11.4477 15 11 15.4477 11 16C11 16.5523 11.4477 17 12 17H25C25.5523 17 26 16.5523 26 16C26 15.4477 25.5523 15 25 15H12ZM12 21C11.4477 21 11 21.4477 11 22C11 22.5523 11.4477 23 12 23H25C25.5523 23 26 22.5523 26 22C26 21.4477 25.5523 21 25 21H12ZM9 16C9 16.8284 8.32843 17.5 7.5 17.5C6.67157 17.5 6 16.8284 6 16C6 15.1716 6.67157 14.5 7.5 14.5C8.32843 14.5 9 15.1716 9 16ZM7.5 23.5C8.32843 23.5 9 22.8284 9 22C9 21.1716 8.32843 20.5 7.5 20.5C6.67157 20.5 6 21.1716 6 22C6 22.8284 6.67157 23.5 7.5 23.5Z" fill="#858585"/>
</svg>

<svg width="32" height="32" fill="none" xmlns="http://www.w3.org/2000/svg" viewBox="0 0 32 32"><path fill-rule="evenodd" clip-rule="evenodd" d="M7.5 11.5a1.5 1.5 0 100-3 1.5 1.5 0 000 3zM11 10a1 1 0 011-1h13a1 1 0 110 2H12a1 1 0 01-1-1zm1 5a1 1 0 100 2h13a1 1 0 100-2H12zm0 6a1 1 0 100 2h13a1 1 0 100-2H12zm-3-5a1.5 1.5 0 11-3 0 1.5 1.5 0 013 0zm-1.5 7.5a1.5 1.5 0 100-3 1.5 1.5 0 000 3z" fill="currentColor"></path></svg>
